X:1
T:Sacrifice
T:Sully Prudhomme (1837-1907)
T:Clémence de Grandval (1828-1907)
T:SACRIFICE
T:Creative Commons copyright waiver (CC0 1.0 Universal)
T:Creative Commons copyright waiver (CC0 1.0 Universal)
T:Creative Commons copyright waiver (CC0 1.0 Universal)
C:Clémence de Grandval (1828-1907)
Z:Sully Prudhomme (1837-1907)
Z:Creative Commons copyright waiver (CC0 1.0 Universal)
%%score 1 { ( 2 4 ) | ( 3 5 ) }
L:1/8
Q:1/4=76
M:4/4
K:Bb
V:1 treble nm="CHANT.\nvoice."
V:2 treble nm="PIANO."
V:4 treble 
V:3 bass 
V:5 bass 
V:1
"^Un peu lent." z2"^doux et triste" G2 A2 B2 | c B A d c2 A2 | x B c d G4 | z G A B D4 | %4
w: Cel- le que|j'aime est fi- an- cé- e,|Je suis vain- cu,|je me soum- mets,|
 z2!<(! G2 A2 B2!<)! | c B A d c2 A2 | z!>(! B A G ^F =E!>)! F3/2 G/ | A4- A z!p! D2 | %8
w: Je la sui-|vrai par la pen- sé- e|sans qu'elle en sa- che rien ja-|mais! _ Ma|
 A2 B c B2 A G |[K:Bb] B2 A4"^cresc." D2 | A2 B3/2 c/ B2 A G |!>(! d4- d!>)!"^dim." F G B | %12
w: bou- che re- nonce à lui|di- re Le|mot main- te- nant dé- fen-|du, _ Et le ser-|
 c4-!p! c[Q:1/4=72]"^poco rit." E F G ||[K:G][Q:1/4=74]"^Tempo"!pp! B4 B4 | %14
w: ment _ que je sou-|pi- re|
!<(! A B c!<)!"^ad lib." e!>(! B2 A!>)! D ||[K:Bb][Q:1/4=76]"^a tempo."!p! G6- G z | z8 | %17
w: Ne se- ra point d'elle en- ten-|\- du! _||
 z2 G2 A2 B2 ||[K:Bb] c!<(! B A d c2!<)! A2 | z (Bc) d G3 G |!>(! G2 A3/2 B/!>)! D4 | z2 G2 A2 B2 | %22
w: Je sau- rai|re- fou- ler mes lar- mes,|Sans _ ja- mais cher-|cher son re- gard;|Hum- ble ri-|
 c!<(! B A d c2!<)! A2 | B A G!>(! D =E2 ^F!>)! G | A4- A z D3/2 D/ | (A2 B) c B2 A3/2 G/ | %26
w: val, mon cœur sans ar- mes,|Sai- gne- ra mu- et, à l'é-|\- cart. _ Non, l'a-|mour _ se- cret dont je|
!<(! B2 A4!<)! D2 |"^cresc." A A B c (B2 A) G |!>(! d4-!>)! d/ z/"^dim." (FG) B | %29
w: pleu- re, Je|n'en fe- rai ja- mais _ l'a-|veu _ Et _ si|
!p! c3 E E2 F G[Q:1/4=68]"^rit." |!pp!!<(! =B4 B4!<)! | z2"^cresc." c c d2 G G | %32
w: mê- me il faut que j'en|meu- re,|Je tai- rai mon der-|
!>(! B A!>)!!p! A4- A z |[Q:1/4=58]"^Lent.""^ad lib.\nespress." (D2!<(! A) G!<)! !fermata!d3 d | %34
w: nier a- dieu! _|mon _ der- nier a-|
!>(! d8-!>)![Q:1/4=54]"^rit." | d2 z2 z4 |] %36
w: dieu!|_|
V:2
"^Un peu lent."!pp! [GBd]4 [GBd]4 | [GAcd]4 [GAcd]4 | [GBd]4 (G4 | [EG]4) [D^Fcd]4 | %4
 [DGBd]4!<(! [GBd]4!<)! | ([Acf]4 [Ad^f]4 | [Gdg]2) z2!p! [^CG]4 | [D^F]2 [DF]2 !>!^f4 | %8
 [CEG]2 [CEG]2 !>!g4 |[K:Bb] [D^F]2 [DF]2 !>!a4 | [CEG]2 [CEG]2"_cresc." !>!b4 | %11
"_dim." [B,=F]2 [B,F]2 !>!f4 |[K:Bb]!p! [CE]2 [CE]2 !>!e4 ||[K:G]"^Tempo"!pp! [B,D](dge dBGB,) | %14
!<(! ([C-E]4 [CF])!<)! z z2 ||[K:Bb]"^a tempo."!p!!<(! ([=FGd]efg!<)! e2 dc) |!>(! G8!>)! | %17
!p! [_B,G]4!pp! [GBd]4 || z2 (d2 =e2 ^f2 | g2) B6- | [GB]4 [D^Fcd]4 |!p! [DGBd]4 [Bd]4 | %22
 (f4 =e2 ^f2 | [Gdg]2) z2!>(! (([G,^C]4!>)! | [^F,D])) z!pp! (d2 ^f2 ^F2) | [CE] z (e2 g2 G2) | %26
 [D^F] z!<(! (^f2 a2 A2)!<)! |"_cresc." [CEG] z (g2 b2 B2) | [DF] z"_dim." (d2 f2 F2) | %29
 [CE] z (c2 e2 E2-) | (E!<(!DGF ed!<)!gf) | [Ge]4 (G4 |!>(! [=C^F]3)!>)!!p! (D =EFGA) | %33
"^Lent." (B2 AB =E2 [D^F]) !fermata!z | [B,DG]2- [B,DG]B,!pp!"^rit." DGBd | b2 z2 [B,DG]2 z2 |] %36
V:3
 z8 | z8 | z4 (E2 D2 | C4 B,2 A,2 | G,4) z4 |[K:treble] (F4 D4 | B,2) z2[K:bass] [=E,A,]4 | %7
 [D,A,]2 [D,A,]2 z4 | [D,A,]2 [D,A,]2 z4 |[K:Bb] [D,A,]2 [D,A,]2 z4 | [D,A,]2 [D,A,]2 z4 | %11
 [D,F,]2 [D,F,]2 z4 |[K:Bb] [D,G,]2 [D,G,]2"^suivez." z4 ||[K:G] [D,G,] z z2 [B,D] z z2 | %14
 (A,4 D,)"^suivez." z z2 ||[K:Bb] !arpeggio![G,,D,=B,]4 (C2 DE) | (D,E,F,G, E,2 D,C,) | %17
 [G,,D,]4 z4 ||[K:treble] [GAc]4 [GAc]4 | (B2 z2 E2 D2 | %20
 C)[K:bass]!<(!(E,F,G,!<)!!>(! B,2!>)! A,2 | G,4)[K:treble] (G4 | F4 D4 | %23
 B,2) z2[K:bass] (B,,A,,^F,,=E,, | [D,,A,,]) z [^F,A,D]4 z2 | [D,G,] z [G,CE]4 z2 | %26
 [D,A,] z [A,D^F]4 z2 | [D,A,] z [CEG]4 z2 | [D,B,] z [DF]4 z2 | [D,G,] z"^rit." [G,CE]4 z2 | %30
 [G,,F,]4 [G,=B,] z z2 | ([CE]4 _B,2 A,2) | [D,A,]2- [D,A,] z z4 | z4 D,2- D, !fermata!z | %34
 [G,,,G,,]G,,D, x x4 | x2 z2 [G,,D,]2 z2 |] %36
V:4
 x8 | x8 | x8 | x8 | x8 | x8 | x8 | x8 | x8 |[K:Bb] x8 | x8 | x8 |[K:Bb] x8 ||[K:G] x8 | x8 || %15
[K:Bb] x4 G4 | [=B,F]4 [A,C]4 | x8 || x8 | x4 G4- | E4 x4 | x8 | [Ac]4 [Ad]4 | x8 | x8 | x8 | x8 | %27
 x8 | x8 | x8 | [G,=B,]2 x6 | x6 ^C2 | x8 | x4 [A,D]2- [A,D] x | x8 | x8 |] %36
V:5
 x8 | x8 | x8 | x8 | x8 |[K:treble] x8 | x4[K:bass] x4 | x8 | x8 |[K:Bb] x8 | x8 | x8 |[K:Bb] x8 || %13
[K:G] x8 | x8 ||[K:Bb] x4 G,4 | x8 | x8 ||[K:treble] x8 | G4 x4 | x[K:bass] x7 | x4[K:treble] x4 | %22
 x8 | x4[K:bass] x4 | x8 | x8 | x8 | x8 | x8 | x8 | x8 | x8 | x8 | x8 | x8 | x8 |] %36

